X:1506
T:Bouncing Boy, The
R:reel
N:"collected from O'Reilly"
B:"O'Neill's Dance Music of Ireland, 1506"
T: an buacaill freapa.d.
Z:transcribed by John B. Walsh, walsh@math.ubc.ca 8/23/96
M:C|
L:1/8
K:G
((3DEF)|G2 BG A2 ((3Bcd)|edcA BEEF|G2 BG A2 ((3Bcd)|edcA BGGD|
G2 BG A2 ((3Bcd)|edcA BEEF|G2 BG A2 ((3Bcd)|egfa g2||
z2|g2 ge f2 fd|e2 fg af d2|g2 ge f2 fd|efaf g2 g2|
gabg fgaf|edeg fd d2|g2 (fg) eAAB|dcAF G2||


